flaticon/medical/thin.svg

<svg xmlns="http://www.w3.org/2000/svg" width="32" height="32" viewBox="0 0 24 24">
    <path d="M8 13.199219C8 13.421875 7.820312 13.601562 7.601562 13.601562 7.378906 13.601562 7.199219 13.421875 7.199219 13.199219 7.199219 12.980469 7.378906 12.800781 7.601562 12.800781 7.820312 12.800781 8 12.980469 8 13.199219zM17.199219 13.199219C17.199219 13.421875 17.019531 13.601562 16.800781 13.601562 16.578125 13.601562 16.398438 13.421875 16.398438 13.199219 16.398438 12.980469 16.578125 12.800781 16.800781 12.800781 17.019531 12.800781 17.199219 12.980469 17.199219 13.199219zM17.199219 13.199219"/>
    <path d="M 24 12 C 24 11.1875 23.917969 10.394531 23.761719 9.625 L 23.769531 9.625 L 23.679688 9.253906 C 23.675781 9.242188 23.671875 9.226562 23.671875 9.214844 C 23.550781 8.71875 23.40625 8.238281 23.226562 7.769531 C 23.214844 7.734375 23.199219 7.699219 23.1875 7.664062 C 23.113281 7.472656 23.03125 7.28125 22.949219 7.09375 C 22.925781 7.042969 22.902344 6.992188 22.875 6.9375 C 22.78125 6.734375 22.679688 6.527344 22.574219 6.328125 C 22.566406 6.316406 22.558594 6.300781 22.550781 6.289062 C 22.441406 6.085938 22.324219 5.890625 22.203125 5.695312 C 22.160156 5.621094 22.109375 5.550781 22.0625 5.476562 C 21.984375 5.351562 21.898438 5.230469 21.8125 5.109375 C 21.757812 5.03125 21.703125 4.953125 21.648438 4.875 C 21.527344 4.714844 21.40625 4.558594 21.28125 4.402344 C 21.210938 4.316406 21.136719 4.234375 21.0625 4.148438 C 20.976562 4.046875 20.890625 3.949219 20.796875 3.851562 C 20.761719 3.8125 20.726562 3.769531 20.6875 3.730469 L 20.535156 3.566406 L 20.527344 3.570312 C 19.355469 2.378906 17.933594 1.4375 16.347656 0.820312 L 16.347656 0.808594 L 16.144531 0.734375 C 15.957031 0.667969 15.765625 0.601562 15.574219 0.542969 C 15.554688 0.539062 15.53125 0.53125 15.511719 0.527344 C 15.359375 0.480469 15.207031 0.433594 15.054688 0.394531 C 14.96875 0.371094 14.886719 0.355469 14.804688 0.335938 C 14.710938 0.3125 14.621094 0.289062 14.53125 0.269531 C 14.417969 0.246094 14.300781 0.222656 14.183594 0.203125 C 14.125 0.191406 14.070312 0.179688 14.011719 0.171875 C 13.875 0.148438 13.738281 0.128906 13.597656 0.109375 C 13.5625 0.105469 13.527344 0.101562 13.492188 0.0976562 C 13.339844 0.078125 13.183594 0.0585938 13.027344 0.046875 C 13.015625 0.046875 13.003906 0.0429688 12.988281 0.0429688 C 12.660156 0.015625 12.332031 0 12 0 C 11.261719 0 10.542969 0.0703125 9.839844 0.199219 C 9.824219 0.203125 9.808594 0.203125 9.792969 0.207031 C 9.640625 0.234375 9.492188 0.265625 9.34375 0.300781 C 9.304688 0.308594 9.265625 0.320312 9.222656 0.328125 C 9.09375 0.359375 8.964844 0.390625 8.835938 0.425781 C 8.773438 0.445312 8.710938 0.460938 8.648438 0.480469 C 8.539062 0.511719 8.429688 0.542969 8.324219 0.578125 C 8.238281 0.605469 8.15625 0.636719 8.074219 0.664062 C 7.984375 0.695312 7.894531 0.726562 7.808594 0.757812 C 7.785156 0.765625 7.761719 0.773438 7.742188 0.78125 L 7.53125 0.863281 L 7.527344 0.867188 C 5.996094 1.488281 4.617188 2.410156 3.472656 3.570312 L 3.464844 3.566406 L 3.308594 3.730469 C 3.273438 3.769531 3.238281 3.8125 3.199219 3.851562 C 3.109375 3.949219 3.023438 4.046875 2.9375 4.148438 C 2.863281 4.234375 2.789062 4.316406 2.71875 4.402344 C 2.59375 4.558594 2.46875 4.714844 2.351562 4.875 C 2.292969 4.953125 2.242188 5.03125 2.183594 5.109375 C 2.101562 5.230469 2.015625 5.351562 1.9375 5.476562 C 1.886719 5.550781 1.839844 5.621094 1.796875 5.695312 C 1.675781 5.890625 1.558594 6.085938 1.449219 6.289062 C 1.441406 6.300781 1.433594 6.316406 1.425781 6.328125 C 1.320312 6.527344 1.21875 6.730469 1.121094 6.9375 C 1.097656 6.992188 1.074219 7.042969 1.050781 7.09375 C 0.96875 7.28125 0.886719 7.472656 0.8125 7.664062 C 0.800781 7.699219 0.785156 7.734375 0.773438 7.769531 C 0.59375 8.238281 0.449219 8.71875 0.328125 9.214844 C 0.328125 9.226562 0.324219 9.242188 0.320312 9.253906 L 0.230469 9.625 L 0.238281 9.628906 C 0.0820312 10.394531 0 11.1875 0 12 C 0 15.910156 1.882812 19.390625 4.785156 21.582031 L 4.785156 21.589844 L 4.929688 21.695312 C 4.984375 21.734375 5.039062 21.765625 5.09375 21.804688 C 5.246094 21.910156 5.398438 22.015625 5.554688 22.113281 C 5.640625 22.167969 5.722656 22.222656 5.808594 22.273438 C 6 22.390625 6.199219 22.5 6.398438 22.605469 C 6.496094 22.660156 6.597656 22.710938 6.699219 22.761719 C 6.886719 22.855469 7.074219 22.941406 7.269531 23.027344 C 7.382812 23.074219 7.496094 23.121094 7.613281 23.164062 C 7.769531 23.226562 7.925781 23.285156 8.082031 23.339844 C 8.183594 23.375 8.285156 23.410156 8.390625 23.445312 C 8.613281 23.515625 8.84375 23.578125 9.074219 23.636719 C 9.167969 23.660156 9.257812 23.679688 9.351562 23.703125 C 9.554688 23.746094 9.757812 23.789062 9.964844 23.824219 C 10.027344 23.835938 10.089844 23.847656 10.152344 23.855469 C 10.414062 23.898438 10.675781 23.925781 10.945312 23.949219 C 11.015625 23.957031 11.085938 23.960938 11.15625 23.96875 C 11.4375 23.988281 11.71875 24 12 24 C 12.28125 24 12.5625 23.988281 12.839844 23.96875 C 12.914062 23.960938 12.984375 23.957031 13.054688 23.949219 C 13.320312 23.925781 13.585938 23.898438 13.847656 23.855469 C 13.910156 23.847656 13.972656 23.835938 14.035156 23.824219 C 14.242188 23.789062 14.445312 23.746094 14.648438 23.703125 C 14.738281 23.679688 14.832031 23.660156 14.925781 23.636719 C 15.15625 23.578125 15.382812 23.515625 15.609375 23.445312 C 15.710938 23.410156 15.8125 23.375 15.917969 23.339844 C 16.074219 23.285156 16.230469 23.226562 16.386719 23.164062 C 16.5 23.121094 16.617188 23.074219 16.730469 23.027344 C 16.921875 22.941406 17.113281 22.855469 17.300781 22.761719 C 17.402344 22.710938 17.5 22.660156 17.601562 22.609375 C 17.800781 22.5 17.996094 22.390625 18.191406 22.273438 C 18.277344 22.222656 18.359375 22.167969 18.441406 22.113281 C 18.601562 22.015625 18.753906 21.910156 18.90625 21.804688 C 18.960938 21.765625 19.015625 21.734375 19.070312 21.695312 L 19.210938 21.589844 L 19.210938 21.582031 C 22.117188 19.390625 24 15.910156 24 12 Z M 18.457031 21.144531 C 18.417969 21.171875 18.382812 21.199219 18.34375 21.222656 C 18.164062 21.347656 17.980469 21.46875 17.792969 21.582031 C 17.714844 21.628906 17.632812 21.671875 17.554688 21.71875 C 17.421875 21.796875 17.285156 21.871094 17.152344 21.941406 C 17.058594 21.988281 16.96875 22.035156 16.878906 22.082031 C 16.691406 22.171875 16.5 22.257812 16.308594 22.335938 C 16.210938 22.378906 16.109375 22.417969 16.007812 22.457031 C 15.871094 22.507812 15.730469 22.558594 15.589844 22.605469 C 15.492188 22.640625 15.394531 22.675781 15.296875 22.703125 C 15.097656 22.765625 14.894531 22.820312 14.691406 22.871094 C 14.601562 22.894531 14.511719 22.914062 14.417969 22.933594 C 14.226562 22.976562 14.03125 23.015625 13.835938 23.046875 C 13.785156 23.054688 13.734375 23.066406 13.6875 23.074219 C 13.449219 23.109375 13.210938 23.136719 12.96875 23.15625 C 12.902344 23.160156 12.835938 23.164062 12.765625 23.171875 C 12.511719 23.1875 12.257812 23.199219 12 23.199219 C 11.742188 23.199219 11.488281 23.1875 11.234375 23.171875 C 11.164062 23.164062 11.097656 23.160156 11.03125 23.15625 C 10.789062 23.136719 10.550781 23.109375 10.3125 23.074219 C 10.265625 23.066406 10.214844 23.054688 10.167969 23.046875 C 9.96875 23.015625 9.773438 22.976562 9.582031 22.933594 C 9.488281 22.914062 9.398438 22.894531 9.308594 22.871094 C 9.105469 22.820312 8.90625 22.765625 8.707031 22.703125 C 8.605469 22.671875 8.507812 22.640625 8.410156 22.605469 C 8.269531 22.558594 8.128906 22.507812 7.992188 22.457031 C 7.890625 22.417969 7.789062 22.378906 7.691406 22.335938 C 7.5 22.257812 7.308594 22.171875 7.121094 22.082031 C 7.03125 22.035156 6.941406 21.988281 6.851562 21.941406 C 6.714844 21.871094 6.578125 21.796875 6.445312 21.71875 C 6.367188 21.671875 6.285156 21.628906 6.207031 21.582031 C 6.019531 21.46875 5.835938 21.347656 5.65625 21.222656 C 5.621094 21.199219 5.582031 21.171875 5.542969 21.144531 C 5.441406 20.191406 5.332031 19.125 5.226562 18.0625 C 4.972656 15.609375 4.734375 13.296875 4.601562 12.34375 C 4.386719 10.84375 3.238281 9.742188 1.191406 9.074219 C 1.195312 9.0625 1.199219 9.050781 1.203125 9.039062 C 1.25 8.855469 1.308594 8.671875 1.367188 8.492188 C 1.378906 8.449219 1.394531 8.410156 1.40625 8.371094 C 1.464844 8.210938 1.523438 8.050781 1.585938 7.894531 C 1.601562 7.851562 1.617188 7.808594 1.636719 7.765625 C 1.707031 7.59375 1.777344 7.425781 1.855469 7.257812 C 1.867188 7.234375 1.878906 7.210938 1.890625 7.1875 C 1.976562 7 2.074219 6.816406 2.171875 6.636719 C 2.199219 6.585938 2.226562 6.542969 2.253906 6.496094 C 2.324219 6.367188 2.398438 6.242188 2.476562 6.117188 C 2.523438 6.042969 2.570312 5.972656 2.617188 5.898438 C 2.675781 5.804688 2.742188 5.710938 2.804688 5.617188 C 2.863281 5.535156 2.917969 5.457031 2.972656 5.378906 C 3.035156 5.296875 3.097656 5.214844 3.164062 5.132812 C 3.226562 5.054688 3.285156 4.972656 3.351562 4.894531 C 3.421875 4.804688 3.5 4.71875 3.574219 4.632812 C 3.628906 4.570312 3.6875 4.503906 3.742188 4.441406 L 5.429688 4.792969 C 6.023438 4.917969 6.644531 4.78125 7.132812 4.417969 C 7.621094 4.054688 7.929688 3.496094 7.976562 2.925781 L 8.238281 1.453125 C 8.253906 1.445312 8.273438 1.441406 8.289062 1.433594 C 8.570312 1.335938 8.851562 1.25 9.136719 1.171875 C 9.140625 1.171875 9.144531 1.171875 9.148438 1.167969 C 9.441406 1.09375 9.738281 1.027344 10.039062 0.976562 C 10.058594 0.972656 10.074219 0.96875 10.09375 0.964844 C 10.394531 0.914062 10.703125 0.875 11.007812 0.847656 C 11.007812 0.847656 11.007812 0.847656 11.011719 0.847656 C 11.625 0.792969 12.246094 0.789062 12.863281 0.835938 C 12.886719 0.839844 12.90625 0.839844 12.929688 0.839844 C 13.226562 0.867188 13.519531 0.902344 13.808594 0.949219 C 13.835938 0.953125 13.863281 0.957031 13.890625 0.960938 C 14.164062 1.007812 14.433594 1.066406 14.699219 1.128906 C 14.726562 1.136719 14.757812 1.144531 14.785156 1.152344 C 15.039062 1.214844 15.289062 1.292969 15.539062 1.375 C 15.582031 1.390625 15.625 1.40625 15.671875 1.421875 L 16.023438 2.921875 C 16.082031 3.515625 16.390625 4.058594 16.867188 4.417969 C 17.355469 4.78125 17.976562 4.917969 18.570312 4.792969 L 20.257812 4.441406 C 20.316406 4.503906 20.371094 4.570312 20.425781 4.632812 C 20.503906 4.71875 20.578125 4.804688 20.652344 4.894531 C 20.714844 4.972656 20.777344 5.054688 20.839844 5.132812 C 20.902344 5.214844 20.964844 5.296875 21.027344 5.378906 C 21.085938 5.457031 21.140625 5.535156 21.195312 5.617188 C 21.261719 5.710938 21.324219 5.804688 21.386719 5.898438 C 21.433594 5.972656 21.480469 6.042969 21.523438 6.117188 C 21.601562 6.242188 21.675781 6.367188 21.746094 6.496094 C 21.773438 6.542969 21.804688 6.585938 21.828125 6.636719 C 21.929688 6.816406 22.023438 7 22.113281 7.1875 C 22.125 7.210938 22.132812 7.234375 22.144531 7.257812 C 22.222656 7.425781 22.296875 7.59375 22.367188 7.765625 C 22.382812 7.808594 22.398438 7.847656 22.417969 7.890625 C 22.480469 8.050781 22.539062 8.210938 22.59375 8.371094 C 22.605469 8.410156 22.621094 8.449219 22.632812 8.492188 C 22.695312 8.671875 22.75 8.855469 22.800781 9.039062 C 22.804688 9.050781 22.808594 9.0625 22.8125 9.074219 C 20.761719 9.742188 19.617188 10.84375 19.402344 12.34375 C 19.265625 13.296875 19.027344 15.609375 18.777344 18.0625 C 18.667969 19.125 18.558594 20.191406 18.457031 21.144531 Z M 19.582031 3.765625 L 18.40625 4.011719 C 18.035156 4.085938 17.648438 4.003906 17.347656 3.777344 C 17.042969 3.550781 16.851562 3.203125 16.820312 2.824219 L 16.574219 1.78125 C 17.683594 2.277344 18.699219 2.953125 19.582031 3.765625 Z M 7.359375 1.808594 L 7.179688 2.824219 C 7.148438 3.203125 6.957031 3.550781 6.652344 3.777344 C 6.351562 4.003906 5.964844 4.089844 5.59375 4.011719 L 4.417969 3.765625 C 5.285156 2.96875 6.277344 2.304688 7.359375 1.808594 Z M 0.800781 12 C 0.800781 11.269531 0.871094 10.554688 1.007812 9.863281 C 2.695312 10.429688 3.640625 11.300781 3.808594 12.457031 C 3.941406 13.394531 4.1875 15.808594 4.429688 18.140625 C 4.507812 18.925781 4.589844 19.710938 4.667969 20.453125 C 2.300781 18.398438 0.800781 15.371094 0.800781 12 Z M 19.332031 20.453125 C 19.410156 19.710938 19.492188 18.925781 19.570312 18.140625 C 19.8125 15.808594 20.058594 13.394531 20.191406 12.457031 C 20.359375 11.300781 21.304688 10.429688 22.992188 9.863281 C 23.128906 10.554688 23.199219 11.269531 23.199219 12 C 23.199219 15.371094 21.699219 18.398438 19.332031 20.453125 Z M 19.332031 20.453125"/>
    <path d="M7.578125 4.808594C7.355469 4.820312 7.1875 5.011719 7.199219 5.230469 7.214844 5.453125 7.402344 5.617188 7.625 5.605469 8.507812 5.554688 9.210938 5.785156 9.71875 6.289062 9.796875 6.367188 9.898438 6.40625 10 6.40625 10.101562 6.40625 10.207031 6.367188 10.28125 6.289062 10.441406 6.132812 10.441406 5.882812 10.28125 5.726562 9.609375 5.050781 8.699219 4.742188 7.578125 4.808594zM5.066406 9.367188C4.902344 9.222656 4.648438 9.238281 4.5 9.402344 4.355469 9.566406 4.371094 9.820312 4.535156 9.964844 5.195312 10.554688 5.53125 11.214844 5.53125 11.929688 5.53125 12.152344 5.710938 12.328125 5.929688 12.328125 6.152344 12.328125 6.332031 12.152344 6.332031 11.929688 6.332031 10.976562 5.90625 10.117188 5.066406 9.367188zM19.492188 9.878906C19.648438 9.722656 19.648438 9.46875 19.492188 9.3125 19.335938 9.15625 19.082031 9.15625 18.925781 9.3125 18.25 9.988281 17.945312 10.898438 18.007812 12.019531 18.019531 12.230469 18.199219 12.394531 18.40625 12.394531 18.414062 12.394531 18.421875 12.394531 18.429688 12.394531 18.652344 12.382812 18.820312 12.191406 18.808594 11.972656 18.753906 11.089844 18.984375 10.382812 19.492188 9.878906zM14.070312 6.289062C14.554688 5.808594 15.417969 5.550781 16.375 5.605469 16.601562 5.617188 16.785156 5.453125 16.800781 5.230469 16.8125 5.011719 16.644531 4.820312 16.421875 4.808594 15.242188 4.738281 14.148438 5.082031 13.507812 5.726562 13.351562 5.882812 13.351562 6.132812 13.507812 6.289062 13.585938 6.367188 13.6875 6.40625 13.789062 6.40625 13.890625 6.40625 13.992188 6.367188 14.070312 6.289062zM12 11.199219C11.777344 11.199219 11.601562 11.378906 11.601562 11.601562L11.601562 12.398438C11.601562 12.621094 11.777344 12.800781 12 12.800781 12.222656 12.800781 12.398438 12.621094 12.398438 12.398438L12.398438 11.601562C12.398438 11.378906 12.222656 11.199219 12 11.199219zM16.800781 20C15.523438 20 14.398438 18.871094 14.398438 17.585938 14.398438 17.363281 14.222656 17.183594 14 17.183594 13.777344 17.183594 13.601562 17.363281 13.601562 17.585938 13.601562 19.296875 15.09375 20.800781 16.800781 20.800781 17.019531 20.800781 17.199219 20.621094 17.199219 20.398438 17.199219 20.179688 17.019531 20 16.800781 20zM10 17.183594C9.777344 17.183594 9.601562 17.363281 9.601562 17.585938 9.601562 18.871094 8.476562 20 7.199219 20 6.980469 20 6.800781 20.179688 6.800781 20.398438 6.800781 20.621094 6.980469 20.800781 7.199219 20.800781 8.90625 20.800781 10.398438 19.296875 10.398438 17.585938 10.398438 17.363281 10.222656 17.183594 10 17.183594zM9.199219 4.398438C9.421875 4.398438 9.601562 4.222656 9.601562 4L9.601562 3.199219C9.601562 2.980469 9.421875 2.800781 9.199219 2.800781 8.980469 2.800781 8.800781 2.980469 8.800781 3.199219L8.800781 4C8.800781 4.222656 8.980469 4.398438 9.199219 4.398438zM14.800781 4.398438C15.019531 4.398438 15.199219 4.222656 15.199219 4L15.199219 3.199219C15.199219 2.980469 15.019531 2.800781 14.800781 2.800781 14.578125 2.800781 14.398438 2.980469 14.398438 3.199219L14.398438 4C14.398438 4.222656 14.578125 4.398438 14.800781 4.398438zM14.800781 4.398438"/>
</svg>

<svg xmlns="http://www.w3.org/2000/svg" width="32" height="32" viewBox="0 0 24 24">
    <path d="M8 13.2a.401.401 0 1 1-.802.002.401.401 0 0 1 .802-.003zm0 0M17.2 13.2a.401.401 0 1 1-.803.002.401.401 0 0 1 .802-.003zm0 0"/>
    <path d="M24 12c0-.813-.082-1.605-.238-2.375h.008l-.09-.371a11.916 11.916 0 0 0-.453-1.484c-.012-.036-.028-.07-.04-.106a14.615 14.615 0 0 0-.238-.57l-.074-.157c-.094-.203-.195-.41-.3-.609-.009-.012-.016-.027-.024-.039-.11-.203-.227-.398-.348-.594-.043-.074-.094-.144-.14-.218a7.6 7.6 0 0 0-.25-.368l-.165-.234c-.12-.16-.242-.316-.367-.473-.07-.086-.144-.168-.218-.254a6.28 6.28 0 0 0-.266-.296c-.035-.04-.07-.082-.11-.122l-.152-.164-.008.004a11.93 11.93 0 0 0-4.18-2.75V.81l-.202-.075a13.948 13.948 0 0 0-.57-.191c-.02-.004-.044-.012-.063-.016a10.067 10.067 0 0 0-.457-.132c-.086-.024-.168-.04-.25-.06C14.71.313 14.62.29 14.53.27a9.139 9.139 0 0 0-.347-.067 13.15 13.15 0 0 0-.586-.094l-.106-.011a8.9 8.9 0 0 0-.465-.051c-.011 0-.023-.004-.039-.004A11.872 11.872 0 0 0 12 0c-.738 0-1.457.07-2.16.2-.016.003-.031.003-.047.007-.152.027-.3.059-.45.094-.038.008-.077.02-.12.027-.13.031-.258.063-.387.098-.063.02-.125.035-.188.054-.109.032-.218.063-.324.098-.086.027-.168.059-.25.086L7.81.758a1.27 1.27 0 0 0-.067.023l-.21.082-.005.004A12.063 12.063 0 0 0 3.473 3.57l-.008-.004-.156.164c-.036.04-.07.083-.11.122-.09.097-.176.195-.261.296-.075.086-.149.168-.22.254-.124.157-.25.313-.366.473-.059.078-.11.156-.168.234-.082.121-.168.243-.247.368a11.226 11.226 0 0 0-.488.813c-.008.01-.015.026-.023.038a14.763 14.763 0 0 0-.375.766c-.082.187-.164.379-.238.57-.012.035-.028.07-.04.106A11.916 11.916 0 0 0 .32 9.254l-.09.371.008.004A11.849 11.849 0 0 0 0 12c0 3.91 1.883 7.39 4.785 9.582v.008l.145.105c.054.04.11.07.164.11.152.105.304.21.46.308.087.055.169.11.255.16.191.118.39.227.59.332.097.055.199.106.3.157a8.992 8.992 0 0 0 .914.402c.157.063.313.121.469.176l.309.105c.222.07.453.133.683.192l.278.066a15.47 15.47 0 0 0 .8.152c.262.043.524.07.793.094.07.008.14.012.211.02.281.02.563.031.844.031s.563-.012.84-.031c.074-.008.144-.012.215-.02a10.708 10.708 0 0 0 .98-.125c.207-.035.41-.078.613-.12.09-.024.184-.044.278-.067.23-.059.457-.121.683-.192l.309-.105c.156-.055.312-.113.469-.176.113-.043.23-.09.343-.137.192-.086.383-.172.57-.265l.302-.153c.199-.109.394-.218.59-.336.085-.05.167-.105.25-.16.16-.097.312-.203.464-.308.055-.04.11-.07.164-.11l.14-.105v-.008C22.118 19.391 24 15.91 24 12zm-5.543 9.145c-.039.027-.074.054-.113.078-.18.125-.364.246-.551.359-.078.047-.16.09-.238.137a10.312 10.312 0 0 1-1.965.886 10.67 10.67 0 0 1-1.754.441l-.149.028a10.928 10.928 0 0 1-.921.098c-.254.015-.508.027-.766.027a12.421 12.421 0 0 1-1.688-.125c-.046-.008-.097-.02-.144-.027-.2-.031-.395-.07-.586-.113a10.542 10.542 0 0 1-1.172-.328c-.14-.047-.281-.098-.418-.149a6.896 6.896 0 0 1-.3-.121 10.57 10.57 0 0 1-.57-.254l-.27-.14a8.198 8.198 0 0 1-.407-.223c-.078-.047-.16-.09-.238-.137a10.24 10.24 0 0 1-.664-.437c-.102-.954-.211-2.02-.316-3.082-.254-2.454-.493-4.766-.625-5.72-.215-1.5-1.364-2.6-3.41-3.269l.011-.035c.047-.184.106-.367.164-.547.012-.043.028-.082.04-.12.058-.161.116-.321.179-.477a11.687 11.687 0 0 1 .27-.637l.035-.07c.086-.188.183-.372.28-.551.028-.051.056-.094.083-.14a7.39 7.39 0 0 1 .223-.38c.046-.074.093-.144.14-.219.059-.093.125-.187.188-.28l.168-.24c.062-.081.125-.163.191-.245.063-.078.121-.16.188-.238.07-.09.148-.176.222-.262l.168-.192 1.688.352a2.123 2.123 0 0 0 2.547-1.867l.261-1.473c.016-.008.035-.012.051-.02.281-.097.563-.183.848-.261.004 0 .008 0 .011-.004.293-.074.59-.14.891-.191l.055-.012c.3-.05.61-.09.914-.117h.004a11.269 11.269 0 0 1 1.851-.012c.024.004.043.004.067.004a12.855 12.855 0 0 1 .96.12c.274.048.544.106.81.169l.085.023c.254.063.504.141.754.223l.133.047.351 1.5c.059.594.368 1.137.844 1.496.488.363 1.11.5 1.703.375l1.688-.352c.058.063.113.13.168.192.078.086.152.172.226.262.063.078.125.16.188.238l.187.246c.059.078.114.156.168.238.067.094.13.188.192.281.047.075.093.145.136.22.079.124.153.25.223.378.027.047.059.09.082.14.102.18.195.364.285.551.012.024.02.047.032.07a11.75 11.75 0 0 1 .273.634c.062.16.121.32.176.48.011.04.027.078.039.121a8.836 8.836 0 0 1 .18.582c-2.051.668-3.196 1.77-3.41 3.27-.137.953-.376 3.265-.626 5.719-.109 1.062-.218 2.128-.32 3.082zm1.125-17.38l-1.176.247a1.322 1.322 0 0 1-1.586-1.188l-.246-1.043a11.203 11.203 0 0 1 3.008 1.985zM7.359 1.81l-.18 1.015a1.322 1.322 0 0 1-1.585 1.188l-1.176-.246c.867-.797 1.86-1.461 2.941-1.957zM.801 12c0-.73.07-1.445.207-2.137 1.687.567 2.633 1.438 2.8 2.594.133.938.38 3.352.622 5.684.078.785.16 1.57.238 2.312A11.17 11.17 0 0 1 .801 12zm18.531 8.453c.078-.742.16-1.527.238-2.312.242-2.332.489-4.746.621-5.684.168-1.156 1.114-2.027 2.801-2.594a11.17 11.17 0 0 1-3.66 10.59zm0 0"/>
    <path d="M7.578 4.809a.401.401 0 0 0-.379.421.402.402 0 0 0 .426.375c.883-.05 1.586.18 2.094.684a.396.396 0 0 0 .562 0 .39.39 0 0 0 0-.562C9.61 5.05 8.7 4.742 7.578 4.809zm0 0M5.066 9.367a.405.405 0 0 0-.566.035.4.4 0 0 0 .035.563c.66.59.996 1.25.996 1.965 0 .222.18.398.399.398a.398.398 0 0 0 .402-.398c0-.953-.426-1.813-1.266-2.563zm0 0M19.492 9.879a.4.4 0 0 0-.566-.566c-.676.675-.98 1.585-.918 2.707.012.21.191.375.398.375h.024a.401.401 0 0 0 .379-.422c-.055-.883.175-1.59.683-2.094zm0 0M14.07 6.29c.485-.481 1.348-.74 2.305-.685a.4.4 0 1 0 .047-.796c-1.18-.07-2.274.273-2.914.918a.396.396 0 0 0 0 .562.396.396 0 0 0 .562 0zm0 0M12 11.2a.398.398 0 0 0-.398.402v.796a.398.398 0 1 0 .796 0v-.796a.398.398 0 0 0-.398-.403zm0 0M16.8 20c-1.277 0-2.402-1.129-2.402-2.414a.398.398 0 1 0-.796 0c0 1.71 1.492 3.215 3.199 3.215a.401.401 0 0 0 0-.801zm0 0M10 17.184a.398.398 0 0 0-.398.402C9.602 18.87 8.477 20 7.199 20a.4.4 0 0 0 0 .8c1.707 0 3.2-1.503 3.2-3.214a.398.398 0 0 0-.399-.402zm0 0M9.2 4.398A.398.398 0 0 0 9.601 4v-.8a.401.401 0 0 0-.801 0V4c0 .223.18.398.398.398zm0 0M14.8 4.398A.398.398 0 0 0 15.2 4v-.8a.4.4 0 0 0-.802 0V4c0 .223.18.398.403.398zm0 0"/>
</svg>
